X: 29772
T: O Steer Her Up, An Haud Her Gaun
R: polka
M: 2/4
K: Dmajor
d2 f/g/f/e/|df A>G|FA AG/F/|Ec AB/c/|
d2 f>e|df Ag|Bg e/d/c|d2:|
dA FA|dA/A/ F2|Ec ce|GA/G/ c/B/G/E/|
d>A FA|dA/A/ F>g|f/e/d/f/ e/d/c|d2:|

